packages/dnb-eufemia/assets/icons/caravan.svg

<svg width="16" height="16" viewBox="0 0 16 16" fill="none" xmlns="http://www.w3.org/2000/svg">
<path d="M13.1333 12.6666C13.1333 13.182 12.7155 13.5999 12.2 13.5999C11.6845 13.5999 11.2667 13.182 11.2667 12.6666M13.1333 12.6666C13.1333 12.1511 12.7155 11.7332 12.2 11.7332C11.6845 11.7332 11.2667 12.1511 11.2667 12.6666M13.1333 12.6666H14.0667C14.575 12.6666 15 12.2416 15 11.7332V9.86657C15.0001 9.56309 14.9053 9.26718 14.7287 9.02035M11.2667 12.6666H9.4M4.73333 12.6666C4.73333 13.182 4.31547 13.5999 3.8 13.5999C3.28453 13.5999 2.86667 13.182 2.86667 12.6666M4.73333 12.6666C4.73333 12.1511 4.31547 11.7332 3.8 11.7332C3.28453 11.7332 2.86667 12.1511 2.86667 12.6666M4.73333 12.6666H9.4M2.86667 12.6666H1.93333C1.42498 12.6666 1 12.2416 1 11.7332V4.26657C1 3.24986 1.84996 2.3999 2.86667 2.3999H13.1333C14.15 2.3999 15 3.24986 15 4.26657C15 5.28328 14.15 6.13324 13.1333 6.13324H12.6667M14.7287 9.02035L12.6667 6.13324M14.7287 9.02035H9.4M9.4 12.6666V9.02035M12.6667 6.13324H9.4V9.02035" stroke="black" stroke-width="1.5" stroke-linecap="round" stroke-linejoin="round"/>
</svg>

<svg width="16" height="16" viewBox="0 0 16 16" fill="none" xmlns="http://www.w3.org/2000/svg"><path d="M13.133 12.667a.933.933 0 1 1-1.866 0m1.866 0a.933.933 0 1 0-1.866 0m1.866 0h.934a.943.943 0 0 0 .933-.934V9.867c0-.304-.095-.6-.271-.847m-3.462 3.647H9.4m-4.667 0a.933.933 0 0 1-1.866 0m1.866 0a.933.933 0 1 0-1.866 0m1.866 0H9.4m-6.533 0h-.934A.943.943 0 0 1 1 11.733V4.267C1 3.25 1.85 2.4 2.867 2.4h10.266C14.15 2.4 15 3.25 15 4.267c0 1.016-.85 1.866-1.867 1.866h-.466m2.062 2.887-2.062-2.887m2.062 2.887H9.4m0 3.647V9.02m3.267-2.887H9.4V9.02" stroke="#000" stroke-width="1.5" stroke-linecap="round" stroke-linejoin="round"/></svg>
